flaticon/user-interface/browser-22.svg

<svg xmlns="http://www.w3.org/2000/svg" width="32" height="32" viewBox="0 0 24 24">
    <path d="M9.199219 18.800781C8.980469 18.800781 8.800781 18.980469 8.800781 19.199219 8.800781 19.421875 8.980469 19.601562 9.199219 19.601562L14.800781 19.601562C15.019531 19.601562 15.199219 19.421875 15.199219 19.199219 15.199219 18.980469 15.019531 18.800781 14.800781 18.800781zM6.800781 21.199219L16.800781 21.199219C17.019531 21.199219 17.199219 21.019531 17.199219 20.800781 17.199219 20.578125 17.019531 20.398438 16.800781 20.398438L6.800781 20.398438C6.578125 20.398438 6.398438 20.578125 6.398438 20.800781 6.398438 21.019531 6.578125 21.199219 6.800781 21.199219zM2.800781 1.199219C1.917969 1.199219 1.199219 1.917969 1.199219 2.800781 1.199219 3.683594 1.917969 4.398438 2.800781 4.398438 3.683594 4.398438 4.398438 3.683594 4.398438 2.800781 4.398438 1.917969 3.683594 1.199219 2.800781 1.199219zM2.800781 3.601562C2.359375 3.601562 2 3.242188 2 2.800781 2 2.359375 2.359375 2 2.800781 2 3.242188 2 3.601562 2.359375 3.601562 2.800781 3.601562 3.242188 3.242188 3.601562 2.800781 3.601562zM6.398438 1.199219C5.519531 1.199219 4.800781 1.917969 4.800781 2.800781 4.800781 3.683594 5.519531 4.398438 6.398438 4.398438 7.28125 4.398438 8 3.683594 8 2.800781 8 1.917969 7.28125 1.199219 6.398438 1.199219zM6.398438 3.601562C5.957031 3.601562 5.601562 3.242188 5.601562 2.800781 5.601562 2.359375 5.957031 2 6.398438 2 6.839844 2 7.199219 2.359375 7.199219 2.800781 7.199219 3.242188 6.839844 3.601562 6.398438 3.601562zM10 1.199219C9.117188 1.199219 8.398438 1.917969 8.398438 2.800781 8.398438 3.683594 9.117188 4.398438 10 4.398438 10.882812 4.398438 11.601562 3.683594 11.601562 2.800781 11.601562 1.917969 10.882812 1.199219 10 1.199219zM10 3.601562C9.558594 3.601562 9.199219 3.242188 9.199219 2.800781 9.199219 2.359375 9.558594 2 10 2 10.441406 2 10.800781 2.359375 10.800781 2.800781 10.800781 3.242188 10.441406 3.601562 10 3.601562zM10 3.601562"/>
    <path d="M 0 0 L 0 24 L 24 24 L 24 0 Z M 0.800781 0.800781 L 23.199219 0.800781 L 23.199219 4.800781 L 0.800781 4.800781 Z M 23.199219 23.199219 L 0.800781 23.199219 L 0.800781 5.601562 L 23.199219 5.601562 Z M 23.199219 23.199219"/>
    <path d="M 12 17.601562 C 14.867188 17.601562 17.199219 15.265625 17.199219 12.398438 C 17.199219 9.53125 14.867188 7.199219 12 7.199219 C 9.132812 7.199219 6.800781 9.53125 6.800781 12.398438 C 6.800781 15.265625 9.132812 17.601562 12 17.601562 Z M 12 8 C 14.425781 8 16.398438 9.972656 16.398438 12.398438 C 16.398438 14.824219 14.425781 16.800781 12 16.800781 C 9.574219 16.800781 7.601562 14.824219 7.601562 12.398438 C 7.601562 9.972656 9.574219 8 12 8 Z M 12 8"/>
    <path d="M 11.71875 15.082031 C 11.753906 15.121094 11.796875 15.148438 11.847656 15.167969 C 11.894531 15.1875 11.949219 15.199219 12 15.199219 C 12.050781 15.199219 12.105469 15.1875 12.152344 15.167969 C 12.203125 15.148438 12.246094 15.121094 12.28125 15.082031 L 14.28125 13.082031 C 14.4375 12.925781 14.4375 12.671875 14.28125 12.515625 C 14.125 12.359375 13.875 12.359375 13.71875 12.515625 L 12.398438 13.835938 L 12.398438 10.800781 C 12.398438 10.578125 12.222656 10.398438 12 10.398438 C 11.777344 10.398438 11.601562 10.578125 11.601562 10.800781 L 11.601562 13.835938 L 10.28125 12.515625 C 10.125 12.359375 9.875 12.359375 9.71875 12.515625 C 9.5625 12.671875 9.5625 12.925781 9.71875 13.082031 Z M 11.71875 15.082031"/>
</svg>

<svg xmlns="http://www.w3.org/2000/svg" width="32" height="32" viewBox="0 0 24 24">
    <path d="M9.2 18.8a.4.4 0 0 0 0 .802h5.6a.401.401 0 0 0 0-.801zm0 0M6.8 21.2h10a.4.4 0 0 0 0-.802h-10a.401.401 0 0 0 0 .8zm0 0M2.8 1.2c-.882 0-1.6.718-1.6 1.6a1.6 1.6 0 1 0 1.6-1.6zm0 2.402A.802.802 0 0 1 2.8 2a.802.802 0 0 1 0 1.602zm0 0M6.398 1.2A1.6 1.6 0 1 0 8 2.801c0-.884-.719-1.603-1.602-1.603zm0 2.402a.799.799 0 0 1-.796-.801.799.799 0 1 1 1.597 0c0 .441-.36.8-.8.8zm0 0M10 1.2c-.883 0-1.602.718-1.602 1.6A1.6 1.6 0 0 0 10 4.399a1.6 1.6 0 0 0 1.602-1.597c0-.883-.72-1.602-1.602-1.602zm0 2.402A.802.802 0 0 1 10 2a.802.802 0 0 1 0 1.602zm0 0"/>
    <path d="M0 0v24h24V0zm.8.8h22.4v4H.8zm22.4 22.4H.8V5.601h22.4zm0 0"/>
    <path d="M12 17.602c2.867 0 5.2-2.336 5.2-5.204C17.2 9.531 14.866 7.2 12 7.2a5.205 5.205 0 0 0-5.2 5.2 5.208 5.208 0 0 0 5.2 5.203zM12 8a4.403 4.403 0 0 1 4.398 4.398A4.406 4.406 0 0 1 12 16.801a4.406 4.406 0 0 1-4.398-4.403A4.403 4.403 0 0 1 12 8zm0 0"/>
    <path d="M11.719 15.082a.408.408 0 0 0 .281.117.408.408 0 0 0 .281-.117l2-2a.4.4 0 0 0 0-.566.396.396 0 0 0-.562 0l-1.32 1.32V10.8a.398.398 0 1 0-.797 0v3.035l-1.32-1.32a.396.396 0 0 0-.563 0 .4.4 0 0 0 0 .566zm0 0"/>
</svg>
